X: 01
T: the BUTTERFLY
C: Arr. Edgar H. Hunt
B: "FIFTY OLD ENGLISH FOLK DANCE AIRS", Edgar H. Hunt ed., Schott & Co. Ltd. pub., London 1939
Z: 2004-2014 John Chambers <jc:trillian.mit.edu>
M: 2/2
L: 1/4
K: G
[|\
B2 cc | dB G2 | g2 fe | (ed) d2 |\
B2 cc | d2 (3efg | B2 cA | "_Fine"G4 |]
[|\
A>A AA | (BA) A2 | A>A AA | (BA) A2 |\
A>A AA | B>B BB | c>c cc | "_D.C.al fine"d4 ||

%%sep 1 1 500
%%sep 1 1 500
